X: 21202
T: SAW YE NAE MY PEGGY
Q: "Playfully"
%R: minuet
B: "Edinburgh Repository of Music" v.2 p.120 #2
F: http://digital.nls.uk/special-collections-of-printed-music/pageturner.cfm?id=87776133
Z: 2015 John Chambers <jc:trillian.mit.edu>
M: 3/2
L: 1/8
K: Gm
|:\
g3^f g>ab>g =f<dcB | f3g f>gfd edcB |\
g3^f g2(3gab =f<d{d}cB | {d}c2Bc {e}d2cB {A2}G4 :|
|:\
F2B>c B3c {Bc}d2cB | G2c>d c3d edcB |\
F2B>c B3c {e}d2cB | cdbg f<d {d}cB {A2}G4 :|

%%sep 2 1 500
%%sep 1 1 500

